medium.ti1
CTI1   

DESCRIPTOR "Argyll Calibration Target chart information 1"
ORIGINATOR "Argyll targen"
CREATED "Sun Nov 16 17:43:43 2014"
KEYWORD "APPROX_WHITE_POINT"
APPROX_WHITE_POINT "95.106486 100.000000 108.844025"
KEYWORD "COLOR_REP"
COLOR_REP "RGB"
KEYWORD "WHITE_COLOR_PATCHES"
WHITE_COLOR_PATCHES "4"
KEYWORD "BLACK_COLOR_PATCHES"
BLACK_COLOR_PATCHES "4"
KEYWORD "OFPS_PATCHES"
OFPS_PATCHES "120"

NUMBER_OF_FIELDS 7
BEGIN_DATA_FORMAT
SAMPLE_ID RGB_R RGB_G RGB_B XYZ_X XYZ_Y XYZ_Z 
END_DATA_FORMAT

NUMBER_OF_SETS 128
BEGIN_DATA
1 100.000 100.000 100.000 95.1065 100.000 108.844 
2 0.00000 31.6332 0.00000 3.88862 6.77644 1.96288 
3 0.00000 79.6206 26.9441 23.2062 43.7192 13.6051 
4 32.3877 87.8529 45.6534 34.0390 56.8487 26.5291 
5 8.99089 45.1274 18.6623 7.94641 13.5425 5.78056 
6 52.7715 60.9785 32.1955 24.0220 30.0400 13.3178 
7 63.9521 78.2282 41.9849 38.9314 50.4265 22.3348 
8 86.4992 83.8089 80.6542 65.1203 68.0165 68.1764 
9 44.4160 44.2578 60.0442 19.3085 18.4340 33.2942 
10 68.4880 59.0143 73.3033 38.1724 35.2799 52.1746 
11 65.6974 0.00000 0.00000 16.8887 9.19227 1.74452 
12 100.000 0.00000 0.00000 41.8302 22.0522 2.91323 
13 100.000 100.000 0.00000 77.2354 92.8527 14.7151 
14 100.000 100.000 32.1445 78.7421 93.4553 22.6511 
15 0.00000 0.00000 0.00000 1.00000 1.00000 1.00000 
16 9.10032 24.0329 21.0305 3.67239 4.77701 4.99930 
17 42.6070 88.0539 26.2853 34.7395 57.6603 15.4231 
18 81.6173 97.2479 46.3742 63.2700 82.0460 30.4165 
19 33.4560 26.7633 0.00000 6.79866 7.04917 1.86226 
20 41.6392 68.8336 14.8944 22.5315 34.7381 8.19273 
21 61.4212 76.9083 20.1996 34.8667 47.4363 11.3400 
22 71.3226 100.000 18.1009 55.9665 81.8295 16.2833 
23 100.000 100.000 70.3135 85.3214 96.0866 57.3052 
24 100.000 100.000 100.000 95.1065 100.000 108.844 
25 9.98556 13.4908 85.3983 14.4852 7.36480 67.0459 
26 22.0940 57.4923 90.3279 27.0913 28.0529 79.2303 
27 0.00000 0.00000 0.00000 1.00000 1.00000 1.00000 
28 0.00000 30.6292 76.8510 13.5664 10.3527 53.8441 
29 0.00000 51.4937 100.000 26.9480 24.2989 97.8213 
30 79.7469 81.4155 100.000 65.5886 65.2388 103.689 
31 0.00000 0.00000 28.9768 2.22014 1.48798 7.42660 
32 0.00000 28.7711 37.9577 5.50951 6.61549 12.9958 
33 0.00000 100.000 51.0885 40.4129 73.4033 33.9107 
34 14.8407 100.000 74.3017 46.3357 75.8630 61.0053 
35 12.2546 79.6684 48.2047 26.2820 45.0604 26.7053 
36 0.00000 82.5485 67.3085 31.2781 49.8084 47.2972 
37 42.0758 86.4205 82.8541 44.1501 59.6480 71.2597 
38 100.000 70.2727 69.4815 65.7038 57.1950 49.7233 
39 100.000 71.4050 100.000 76.2801 62.3524 102.568 
40 21.6040 13.7506 44.5676 6.14904 4.19525 17.0068 
41 42.6481 20.9032 92.9945 23.6423 12.8127 81.5348 
42 68.5595 28.2453 100.000 38.6321 21.7437 96.7127 
43 8.12106 51.5683 59.0416 14.8973 19.5547 32.6571 
44 0.00000 63.1745 79.8954 24.3943 30.5693 61.8826 
45 7.04117 84.0338 87.8455 38.4479 54.2077 79.1399 
46 0.00000 100.000 100.000 54.2763 78.9478 106.931 
47 68.9452 100.000 100.000 71.9604 88.0658 107.759 
48 33.1406 0.00000 0.00000 4.66506 2.88972 1.17174 
49 31.5738 53.4028 0.00000 13.0600 20.1916 4.06937 
50 30.5365 80.6279 0.00000 25.8573 46.1070 8.39777 
51 50.8859 100.000 0.00000 45.4831 76.4811 13.2272 
52 55.5217 100.000 40.9605 49.8751 78.4569 26.4658 
53 33.3066 47.0322 33.5393 12.9889 16.8485 12.0476 
54 91.7857 49.6678 52.0180 46.2491 34.9346 27.0155 
55 100.000 32.0432 34.6326 46.5528 28.6855 13.1554 
56 100.000 32.0092 64.6718 51.5059 30.6561 39.2756 
57 41.7793 26.9331 38.8498 11.2687 9.13446 13.7359 
58 77.0957 34.0965 59.7187 32.6964 21.6926 32.8630 
59 91.6596 56.4669 83.7763 56.3508 42.8070 68.9110 
60 100.000 100.000 100.000 95.1065 100.000 108.844 
61 20.6368 10.3020 13.1318 3.08438 2.59411 2.65844 
62 51.9816 15.8080 17.1317 11.7130 7.60266 4.03949 
63 86.2199 14.8596 14.2384 31.1830 17.5388 4.28019 
64 86.5554 50.1413 12.7999 38.3284 31.5315 6.32629 
65 60.8611 41.0389 42.8719 22.1369 18.9505 17.7700 
66 76.3461 65.8036 55.0365 41.7397 41.9815 31.4669 
67 0.00000 0.00000 0.00000 1.00000 1.00000 1.00000 
68 27.6858 31.6300 18.9234 6.96512 8.30009 4.89153 
69 52.5616 39.8335 15.5157 15.7738 15.4949 4.96966 
70 53.5547 47.2262 82.3305 29.3547 24.2331 64.3359 
71 76.9703 54.5857 100.000 50.6493 38.1398 99.2447 
72 0.00000 0.00000 63.9914 7.56114 3.62404 35.5582 
73 0.00000 0.00000 100.000 18.8711 8.14731 95.1290 
74 21.8952 25.5056 100.000 22.3503 12.7221 95.8288 
75 41.4084 44.8999 100.000 30.7210 23.1812 97.4068 
76 20.3407 35.8623 48.9696 9.79441 10.6651 21.5741 
77 19.4100 37.5730 83.3580 18.2385 14.6401 64.7779 
78 80.8683 37.1473 84.0578 42.3480 26.9009 67.0541 
79 90.7335 15.3432 48.4832 38.0475 20.7599 21.6264 
80 90.4890 17.2922 74.7502 43.7106 23.2783 51.6423 
81 53.8813 7.16062 80.5348 22.4507 11.1171 59.2490 
82 34.0550 0.00000 68.3133 12.4602 6.03174 41.1247 
83 33.9470 0.00000 100.000 22.7224 10.1331 95.3094 
84 68.5460 0.00000 100.000 36.3285 17.1484 95.9470 
85 31.9344 23.8596 68.1488 13.5833 9.05517 41.4367 
86 57.5444 28.0943 68.8489 22.8542 14.7467 42.9553 
87 64.6620 77.4492 81.5547 47.4875 53.1697 67.6951 
88 21.4575 63.2626 24.1824 16.0702 27.4811 9.78361 
89 41.6110 65.7331 75.6286 30.2057 35.4304 55.9857 
90 49.7386 72.8398 100.000 44.8428 47.2594 101.311 
91 33.7087 0.00000 33.5554 6.44153 3.61531 9.84652 
92 69.4950 16.5565 45.2990 22.9198 13.1722 18.4110 
93 75.8619 13.6059 87.1308 36.5518 18.6879 71.1069 
94 0.00000 0.00000 0.00000 1.00000 1.00000 1.00000 
95 18.6566 74.3787 100.000 38.2173 45.0726 101.238 
96 35.5568 100.000 100.000 58.5157 81.1336 107.129 
97 0.00000 55.0618 41.8235 12.9534 20.7292 17.8584 
98 29.3618 65.0800 45.5487 20.4853 30.7094 22.1164 
99 50.3931 64.5959 53.5465 27.5985 33.8976 29.2171 
100 57.2752 85.4218 62.0647 43.6563 59.0576 42.1129 
101 5.41129 19.8096 58.3927 7.69067 5.53787 29.6408 
102 23.9829 52.1999 70.9605 19.4868 21.9239 47.3305 
103 24.0513 79.6256 68.8765 31.8033 47.3850 48.8201 
104 70.7264 100.000 74.4580 64.3097 85.1254 62.0723 
105 100.000 100.000 100.000 95.1065 100.000 108.844 
106 100.000 37.9808 0.00000 46.0488 30.4883 4.31946 
107 100.000 71.3753 0.00000 58.3936 55.1744 8.43442 
108 84.1466 74.4249 11.3735 47.0260 51.6935 9.51250 
109 87.4862 83.6807 29.3002 56.0586 64.3500 16.8702 
110 100.000 0.00000 37.9318 43.9538 22.9015 14.0987 
111 67.8283 0.00000 30.4886 19.4066 10.3340 8.92293 
112 76.4320 32.7185 26.9776 27.4094 19.0885 8.64300 
113 76.8536 55.4947 32.2213 34.5520 32.2313 13.1992 
114 100.000 64.8381 36.4430 57.1652 49.5934 17.6612 
115 12.5523 87.7132 14.9421 28.2411 54.0423 11.6285 
116 24.1107 100.000 24.1245 39.1879 73.1372 17.3581 
117 0.00000 61.1609 0.00000 12.7639 24.5246 4.92134 
118 0.00000 100.000 0.00000 36.4052 71.8005 12.8018 
119 39.7778 100.000 62.2187 47.9335 77.0313 45.5332 
120 70.2792 29.8815 0.00000 22.0265 15.6590 2.72218 
121 64.4215 55.5008 0.00000 25.7214 27.8567 4.88209 
122 67.3806 81.4953 0.00000 40.0922 54.2325 9.21651 
123 89.8712 83.6768 59.2368 62.2330 67.0339 39.5385 
124 49.3468 7.11883 49.3271 13.4259 7.29866 21.0364 
125 66.4495 0.00000 65.1776 24.1277 12.1343 37.7545 
126 100.000 0.00000 70.0787 49.8563 25.2621 45.1875 
127 100.000 0.00000 100.000 59.7013 29.1995 97.0422 
128 100.000 32.4376 100.000 62.7424 35.2808 98.0559 
END_DATA
CTI1   

DESCRIPTOR "Argyll Calibration Target chart information 1"
ORIGINATOR "Argyll targen"
KEYWORD "DENSITY_EXTREME_VALUES"
DENSITY_EXTREME_VALUES "8"
CREATED "November 16, 2014"

KEYWORD "INDEX"
NUMBER_OF_FIELDS 7
BEGIN_DATA_FORMAT
INDEX RGB_R RGB_G RGB_B XYZ_X XYZ_Y XYZ_Z 
END_DATA_FORMAT

NUMBER_OF_SETS 8
BEGIN_DATA
0 100.000 100.000 100.000 95.1065 100.000 108.844 
1 0.00000 47.3607 100.000 25.6130 21.6292 97.3763 
2 100.000 0.00000 79.3514 52.4258 26.2898 58.7215 
3 0.00000 0.00000 58.9971 6.48583 3.19399 29.8945 
4 100.000 66.6593 0.00000 56.0588 50.5054 7.65614 
5 0.00000 35.6011 0.00000 4.68562 8.37021 2.22855 
6 84.4444 0.00000 0.00000 28.8428 15.3558 2.30466 
7 0.00000 0.00000 0.00000 1.00000 1.00000 1.00000 
END_DATA
CTI1   

DESCRIPTOR "Argyll Calibration Target chart information 1"
ORIGINATOR "Argyll targen"
KEYWORD "DEVICE_COMBINATION_VALUES"
DEVICE_COMBINATION_VALUES "9"
CREATED "November 16, 2014"

KEYWORD "INDEX"
NUMBER_OF_FIELDS 7
BEGIN_DATA_FORMAT
INDEX RGB_R RGB_G RGB_B XYZ_X XYZ_Y XYZ_Z 
END_DATA_FORMAT

NUMBER_OF_SETS 9
BEGIN_DATA
0 100.000 100.000 100.000 95.1065 100.000 108.844 
1 0.00000 100.000 100.000 54.2763 78.9478 106.931 
2 100.000 0.00000 100.000 59.7013 29.1995 97.0422 
3 0.00000 0.00000 100.000 18.8711 8.14731 95.1290 
4 100.000 100.000 0.00000 77.2354 92.8527 14.7151 
5 0.00000 100.000 0.00000 36.4052 71.8005 12.8018 
6 100.000 0.00000 0.00000 41.8302 22.0522 2.91323 
7 0.00000 0.00000 0.00000 1.00000 1.00000 1.00000 
8 50.0000 50.0000 50.0000 21.1427 22.1901 24.0831 
END_DATA
